X:57
T:57.  Where the Sea Meets the Sky
C:c 1984 Harry Bolick  
R:Air
O:United States
A:Brooklyn, New York
M:4/4
L:1/8
Q:150
K:D
Bd |: "Bm"f2fg fe df|"A" a6 gf|"Em"ecde fecd|"Bm"BA"A"GA "G"B2 de|
"Bm"f2fg fedf |"A" a6 gf |"Em" egfe "D" de"A"ce|"Em" B2BA B2 GA |
|: "G" B(B/4c/4B/4A/4) Bc "D"d3d |"Am" ed B<d "Em" B2=cB |"Am"AG AB "G"B2AB|"D" AG EDE2 "F#m"  GA|
"G" B(B/4c/4B/4A/4) Bc "D"d3d |"Am" ed B<d "Bm" B2=cB | "D" Adcd "G" BAGB|1 "D" AG E>D "G" G2 GA:|2"D" AG E>D "Em"E4||
